X:5
T:1st Cello Suite, 5 - Minuet 1
C:J.S. Bach
N:Edited by Jack Roberts
L:1/8
Q:1/4=104
M:3/4
K:D
|: DA f2 ef/g/ | fe dc dA | Bd ge ca | [f4A4D4] [e2A2] | Ec g2 fg/a/ | gf ed cB | 
cd/e/ dc Bc | A2 E2 A,2 :|: Ac e2 de/f/ | ed cB Ac | FA ^de fa | Ea gf g2 | ^Ac eg fe | 
fB De gf | ed cB F^A | B,3B AG | FA d2 AB/=c/ | =cA BG G,F | ^GB e2 Bc/d/ | dB cA A,E | 
Ac eg fa | Bd fa gb | ac dF A,c | [d6D6] :| 
 

